assets-src/icon/plus.svg

<svg xmlns="http://www.w3.org/2000/svg" viewBox="0 0 640 640">
    <!-- Font Awesome Free Copyright 2025 Fonticons, Inc.-->
    <path
        d="M352 128c0-17.7-14.3-32-32-32s-32 14.3-32 32V288H128c-17.7 0-32 14.3-32 32s14.3 32 32 32H288V512c0 17.7 14.3 32 32 32s32-14.3 32-32V352H512c17.7 0 32-14.3 32-32s-14.3-32-32-32H352V128z" />
</svg>

<svg xmlns="http://www.w3.org/2000/svg" viewBox="0 0 640 640"><!--!Font
    Awesome Free v7.1.0 by @fontawesome - https://fontawesome.com License -
    https://fontawesome.com/license/free Copyright 2025 Fonticons, Inc.-->
    <path
        d="M352 128C352 110.3 337.7 96 320 96C302.3 96 288 110.3 288 128L288 288L128 288C110.3 288 96 302.3 96 320C96 337.7 110.3 352 128 352L288 352L288 512C288 529.7 302.3 544 320 544C337.7 544 352 529.7 352 512L352 352L512 352C529.7 352 544 337.7 544 320C544 302.3 529.7 288 512 288L352 288L352 128z" />
</svg>
